data/sheikah/x.svg

<!-- Generated by IcoMoon.io -->
<svg version="1.1" xmlns="http://www.w3.org/2000/svg" width="1024" height="1024" viewBox="0 0 1024 1024">
<title></title>
<g id="icomoon-ignore">
</g>
<path d="M153.5 352.5h119.5v319h-119.5v-319zM751 352.5h119.5v319h-119.5v-319zM153.5 273l119.5-119.5h79.5l119.5 119.5v79.5h80v-79.5l119.5-119.5h79.5l119.5 119.5h-199v79.5l-119.5 119.5h-80l-119.5-119.5v-79.5h-199zM352.5 751v-79.5l119.5-119.5h80l119.5 119.5v79.5h199l-119.5 119.5h-79.5l-119.5-119.5v-79.5h-80v79.5l-119.5 119.5h-79.5l-119.5-119.5h199z"></path>
</svg>

<svg xmlns="http://www.w3.org/2000/svg" width="1024" height="1024" viewBox="0 0 1024 1024">
  <title/>
  <path d="M153.5 352.5H273v319H153.5zm597.5 0h119.5v319H751zM153.5 273 273 153.5h79.5L472 273v79.5h80V273l119.5-119.5H751L870.5 273h-199v79.5L552 472h-80L352.5 352.5V273zm199 478v-79.5L472 552h80l119.5 119.5V751h199L751 870.5h-79.5L552 751v-79.5h-80V751L352.5 870.5H273L153.5 751z"/>
</svg>
